svg/u1f6cb.svg

<svg viewBox="0 0 128 128" xmlns="http://www.w3.org/2000/svg">
  <path d="m16 124h8s4-8 4-8v-4.02l-12.02-0.03 0.02 12.05z" fill="#3E2723"/>
  <path d="m87.98 124h-8c0.33 0-3.99-8-3.99-8h0.01v-4.02l12.01-0.03-0.03 12.05z" fill="#3E2723"/>
  <g opacity=".2">
    <path d="m17.98 113.95 8.02 0.02v1.52c-2 3.22-2.79 5.21-3.39 6.51h-4.61l-0.02-8.05m-2-2.01 0.02 12.06h8.01-0.01c-0.33 0 4-8 4-8v-4.02l-12.02-0.04z" fill="#eee"/>
  </g>
  <g opacity=".2">
    <path d="m86.01 113.95-0.03 8.05h-4.62c-0.59-1.29-1.64-3.28-3.37-6.49v-1.54l8.02-0.02m2-2.01-12.01 0.04v4.02h-0.01s4.32 8 3.99 8h-0.01 8.01l0.03-12.06z" fill="#eee"/>
  </g>
  <linearGradient id="d" gradientUnits="userSpaceOnUse" x1="33.875" x2="33.875" y1="74.333" y2="112.67">
    <stop offset=".381" stop-color="#FF9800"/>
    <stop offset=".7239" stop-color="#F57C00"/>
  </linearGradient>
  <path d="m48 110.83h-28.25c-2.21 0-4-1.79-4-4v-26.83c0-2.21 1.79-4 4-4h28.25c2.21 0 4 1.79 4 4v26.83c0 2.21-1.79 4-4 4z" fill="url(#d)"/>
  <linearGradient id="c" gradientUnits="userSpaceOnUse" x1="69.875" x2="69.875" y1="74.333" y2="112.67">
    <stop offset=".381" stop-color="#FF9800"/>
    <stop offset=".7239" stop-color="#F57C00"/>
  </linearGradient>
  <path d="m84 110.73h-28.25c-2.21 0-4-1.79-4-4v-26.73c0-2.21 1.79-4 4-4h28.25c2.21 0 4 1.79 4 4v26.73c0 2.21-1.79 4-4 4z" fill="url(#c)"/>
  <g opacity=".2">
    <path d="m48 79c0.55 0 1 0.45 1 1v28c0 0.55-0.45 1-1 1h-28.25c-0.55 0-1-0.45-1-1v-28c0-0.55 0.45-1 1-1h28.25m0-3h-28.25c-2.21 0-4 1.79-4 4v28c0 2.21 1.79 4 4 4h28.25c2.21 0 4-1.79 4-4v-28c0-2.21-1.79-4-4-4z" fill="#424242"/>
  </g>
  <g opacity=".2">
    <path d="m84 79c0.55 0 1 0.45 1 1v26.83c0 0.55-0.45 1-1 1h-28.25c-0.55 0-1-0.45-1-1v-26.83c0-0.55 0.45-1 1-1h28.25m0-3h-28.25c-2.21 0-4 1.79-4 4v26.83c0 2.21 1.79 4 4 4h28.25c2.21 0 4-1.79 4-4v-26.83c0-2.21-1.79-4-4-4z" fill="#424242"/>
  </g>
  <path d="m-98 106.83h-28.25c-2.21 0-4-1.79-4-4v-22.83c0-2.21 1.79-4 4-4h28.25c2.21 0 4 1.79 4 4v22.83c0 2.21-1.79 4-4 4z" fill="#757575"/>
  <path d="m-62 106.83h-28.25c-2.21 0-4-1.79-4-4v-22.83c0-2.21 1.79-4 4-4h28.25c2.21 0 4 1.79 4 4v22.83c0 2.21-1.79 4-4 4z" fill="#757575"/>
  <rect fill="#BDBDBD" height="12" width="88" x="-138" y="104"/>
  <path d="m-130 116h-8c-2.21 0-4-1.79-4-4v-16c0-2.21 1.79-4 4-4h8c2.21 0 4 1.79 4 4v16c0 2.21-1.79 4-4 4z" fill="#BDBDBD"/>
  <path d="m-50 116h-8c-2.21 0-4-1.79-4-4v-16c0-2.21 1.79-4 4-4h8c2.21 0 4 1.79 4 4v16c0 2.21-1.79 4-4 4z" fill="#BDBDBD"/>
  <polygon fill="#BDBDBD" points="-22 68 -54 68 -50 48 -26 48"/>
  <rect fill="#BDBDBD" height="60" width="4" x="-40" y="64"/>
  <rect fill="#BDBDBD" height="4" width="16" x="-46" y="120"/>
  <path d="m-130 116v8h8s4-8 4-8-11.88-0.12-12 0z" fill="#757575"/>
  <path d="m-58 116v8h-8s-4-8-4-8h12z" fill="#757575"/>
  <rect fill="#9E9E9E" height="67.37" width="4.49" x="103.79" y="56.63"/>
  <rect fill="#757575" height="4.49" width="17.96" x="97.05" y="119.51"/>
  <linearGradient id="b" gradientUnits="userSpaceOnUse" x1="52" x2="52" y1="101.33" y2="123.68">
    <stop offset="0" stop-color="#FF9800"/>
    <stop offset="1" stop-color="#F57C00"/>
  </linearGradient>
  <rect fill="url(#b)" height="12" width="88" x="8" y="104"/>
  <g opacity=".2">
    <path d="m93 107v6h-82v-6h82m3-3h-88v12h88v-12z" fill="#424242"/>
  </g>
  <linearGradient id="a" gradientUnits="userSpaceOnUse" x1="12" x2="12" y1="95" y2="117.06">
    <stop offset="0" stop-color="#FF9800"/>
    <stop offset="1" stop-color="#F57C00"/>
  </linearGradient>
  <path d="m16 116h-8c-2.21 0-4-1.79-4-4v-16c0-2.21 1.79-4 4-4h8c2.21 0 4 1.79 4 4v16c0 2.21-1.79 4-4 4z" fill="url(#a)"/>
  <linearGradient id="e" gradientUnits="userSpaceOnUse" x1="92" x2="92" y1="95" y2="117.06">
    <stop offset="0" stop-color="#FF9800"/>
    <stop offset="1" stop-color="#F57C00"/>
  </linearGradient>
  <path d="m96 116h-8c-2.21 0-4-1.79-4-4v-16c0-2.21 1.79-4 4-4h8c2.21 0 4 1.79 4 4v16c0 2.21-1.79 4-4 4z" fill="url(#e)"/>
  <g opacity=".2">
    <path d="m16 95c0.55 0 1 0.45 1 1v16c0 0.55-0.45 1-1 1h-8c-0.55 0-1-0.45-1-1v-16c0-0.55 0.45-1 1-1h8m0-3h-8c-2.21 0-4 1.79-4 4v16c0 2.21 1.79 4 4 4h8c2.21 0 4-1.79 4-4v-16c0-2.21-1.79-4-4-4z" fill="#424242"/>
  </g>
  <g opacity=".2">
    <path d="m96 95c0.55 0 1 0.45 1 1v16c0 0.55-0.45 1-1 1h-8c-0.55 0-1-0.45-1-1v-16c0-0.55 0.45-1 1-1h8m0-3h-8c-2.21 0-4 1.79-4 4v16c0 2.21 1.79 4 4 4h8c2.21 0 4-1.79 4-4v-16c0-2.21-1.79-4-4-4z" fill="#424242"/>
  </g>
  <rect fill="#E0E0E0" height="67.37" width="4.49" x="103.79" y="56.63"/>
  <rect fill="#BDBDBD" height="4.49" width="17.96" x="97.05" y="119.51"/>
  <g opacity=".2">
    <path d="m107 58v61.51c0 0.55 0.73 1.49 1.28 1.49h5.72v2h-16v-2h5.79c0.55 0 1.21-0.94 1.21-1.49v-61.51h2m1-1h-4v63h-7v4h18v-4h-7v-63z" fill="#424242"/>
  </g>
  <polygon fill="#F9A825" points="124 61.12 88.07 61.12 92.56 38.67 119.51 38.67"/>
  <polygon fill="#FFEB3B" points="124 61.12 88.07 61.12 92.56 38.67 119.51 38.67"/>
  <g opacity=".2">
    <path d="m117.05 41.67 3.29 16.46h-28.61l3.29-16.46h22.03m2.46-3h-26.95l-4.49 22.46h35.93l-4.49-22.46z" fill="#424242"/>
  </g>
</svg>

<svg viewBox="0 0 128 128" xmlns="http://www.w3.org/2000/svg">
  <path d="M16,124h8l4-8v-4H16V124z" fill="#3E2723"/>
  <path d="M88,124h-8c0.3,0-4-8-4-8l0,0v-4h12V124z" fill="#3E2723"/>
  <g opacity="0.2">
    <path d="M18,113.9h8v1.5c-2,3.2-2.8,5.2-3.4,6.5H18V113.9 M16,111.9V124h8l0,0c-0.3,0,4-8,4-8v-4L16,111.9z" fill="#EEEEEE"/>
  </g>
  <g opacity="0.2">
    <path d="M86,113.9v8.1h-4.6c-0.6-1.3-1.6-3.3-3.4-6.5V114L86,113.9 M88,111.9H76v4l0,0c0,0,4.3,8,4,8l0,0h8 C88,124,88,111.9,88,111.9z" fill="#EEEEEE"/>
  </g>
  <linearGradient id="SVGID_1_" gradientTransform="matrix(1 0 0 1 0 -662)" gradientUnits="userSpaceOnUse" x1="33.9" x2="33.9" y1="736.333" y2="774.67">
    <stop offset="0.381" stop-color="#FF9800"/>
    <stop offset="0.7239" stop-color="#F57C00"/>
  </linearGradient>
  <path d="M48,110.8H19.8c-2.2,0-4-1.8-4-4V80c0-2.2,1.8-4,4-4H48c2.2,0,4,1.8,4,4v26.8 C52,109,50.2,110.8,48,110.8z" fill="url(#SVGID_1_)"/>
  <linearGradient id="SVGID_00000091015626843941195070000005907834338146710452_" gradientTransform="matrix(1 0 0 1 0 -662)" gradientUnits="userSpaceOnUse" x1="69.9" x2="69.9" y1="736.333" y2="774.67">
    <stop offset="0.381" stop-color="#FF9800"/>
    <stop offset="0.7239" stop-color="#F57C00"/>
  </linearGradient>
  <path d="M84,110.7H55.8c-2.2,0-4-1.8-4-4V80 c0-2.2,1.8-4,4-4H84c2.2,0,4,1.8,4,4v26.7C88,108.9,86.2,110.7,84,110.7z" fill="url(#SVGID_00000091015626843941195070000005907834338146710452_)"/>
  <g opacity="0.2">
    <path d="M48,79c0.5,0,1,0.4,1,1v28c0,0.6-0.5,1-1,1H19.8c-0.5,0-1-0.4-1-1V80c0-0.6,0.5-1,1-1H48 M48,76H19.8 c-2.2,0-4,1.8-4,4v28c0,2.2,1.8,4,4,4H48c2.2,0,4-1.8,4-4V80C52,77.8,50.2,76,48,76z" fill="#424242"/>
  </g>
  <g opacity="0.2">
    <path d="M84,79c0.6,0,1,0.4,1,1v26.8c0,0.6-0.4,1-1,1H55.8c-0.5,0-1-0.4-1-1V80c0-0.6,0.5-1,1-1H84 M84,76H55.8 c-2.2,0-4,1.8-4,4v26.8c0,2.2,1.8,4,4,4H84c2.2,0,4-1.8,4-4V80C88,77.8,86.2,76,84,76z" fill="#424242"/>
  </g>
  <rect fill="#9E9E9E" height="67.4" width="4.5" x="103.8" y="56.6"/>
  <rect fill="#757575" height="4.5" width="18" x="97.1" y="119.5"/>
  <linearGradient id="SVGID_00000096030608895867168640000017318738729200234401_" gradientTransform="matrix(1 0 0 1 0 -662)" gradientUnits="userSpaceOnUse" x1="52" x2="52" y1="763.33" y2="785.68">
    <stop offset="0" stop-color="#FF9800"/>
    <stop offset="1" stop-color="#F57C00"/>
  </linearGradient>
  <rect fill="url(#SVGID_00000096030608895867168640000017318738729200234401_)" height="12" width="88" x="8" y="104"/>
  <g opacity="0.2">
    <path d="M93,107v6H11v-6H93 M96,104H8v12h88V104z" fill="#424242"/>
  </g>
  <linearGradient id="SVGID_00000156574675082967173600000010268315044410327185_" gradientTransform="matrix(1 0 0 1 0 -662)" gradientUnits="userSpaceOnUse" x1="12" x2="12" y1="757" y2="779.06">
    <stop offset="0" stop-color="#FF9800"/>
    <stop offset="1" stop-color="#F57C00"/>
  </linearGradient>
  <path d="M16,116H8c-2.2,0-4-1.8-4-4V96c0-2.2,1.8-4,4-4h8 c2.2,0,4,1.8,4,4v16C20,114.2,18.2,116,16,116z" fill="url(#SVGID_00000156574675082967173600000010268315044410327185_)"/>
  <linearGradient id="SVGID_00000165955813572656428570000009080139265718509700_" gradientTransform="matrix(1 0 0 1 0 -662)" gradientUnits="userSpaceOnUse" x1="92" x2="92" y1="757" y2="779.06">
    <stop offset="0" stop-color="#FF9800"/>
    <stop offset="1" stop-color="#F57C00"/>
  </linearGradient>
  <path d="M96,116h-8c-2.2,0-4-1.8-4-4V96c0-2.2,1.8-4,4-4h8 c2.2,0,4,1.8,4,4v16C100,114.2,98.2,116,96,116z" fill="url(#SVGID_00000165955813572656428570000009080139265718509700_)"/>
  <g opacity="0.2">
    <path d="M16,95c0.5,0,1,0.4,1,1v16c0,0.6-0.5,1-1,1H8c-0.6,0-1-0.4-1-1V96c0-0.6,0.4-1,1-1H16 M16,92H8 c-2.2,0-4,1.8-4,4v16c0,2.2,1.8,4,4,4h8c2.2,0,4-1.8,4-4V96C20,93.8,18.2,92,16,92z" fill="#424242"/>
  </g>
  <g opacity="0.2">
    <path d="M96,95c0.6,0,1,0.4,1,1v16c0,0.6-0.4,1-1,1h-8c-0.6,0-1-0.4-1-1V96c0-0.6,0.4-1,1-1H96 M96,92h-8 c-2.2,0-4,1.8-4,4v16c0,2.2,1.8,4,4,4h8c2.2,0,4-1.8,4-4V96C100,93.8,98.2,92,96,92z" fill="#424242"/>
  </g>
  <rect fill="#E0E0E0" height="67.4" width="4.5" x="103.8" y="56.6"/>
  <rect fill="#BDBDBD" height="4.5" width="18" x="97.1" y="119.5"/>
  <g opacity="0.2">
    <path d="M107,58v61.5c0,0.6,0.7,1.5,1.3,1.5h5.7v2H98v-2h5.8c0.6,0,1.2-0.9,1.2-1.5V58H107 M108,57h-4v63h-7v4h18 v-4h-7V57z" fill="#424242"/>
  </g>
  <polygon fill="#F9A825" points="124,61.1 88.1,61.1 92.6,38.7 119.5,38.7 "/>
  <polygon fill="#FFEB3B" points="124,61.1 88.1,61.1 92.6,38.7 119.5,38.7 "/>
  <g opacity="0.2">
    <path d="M117.1,41.7l3.3,16.5H91.7L95,41.7H117.1 M119.5,38.7h-27L88,61.2h36L119.5,38.7z" fill="#424242"/>
  </g>
</svg>
